X:1
T:Title
%%score 1 { ( 2 3 6 ) | ( 4 5 ) }
L:1/8
M:6/4
K:G
V:1 treble nm="Akkordion"
V:2 treble nm="Grand Piano"
V:3 treble 
V:6 treble 
V:4 bass 
V:5 bass 
V:1
 z12[Q:1/4=108] | z12 | z12 | z12 |[M:2/4] z4 |[M:4/4] Bcdd- d2 d2 |[M:6/4] .B4 GB d2 ^c2 d2 | %7
 A4 AB c2 c2 c2 | d4 A2 .B6 | z4 BB B4 B2 | ^c4 cc d2 A3 G | F4 AB c2 c2 c2 | B4 A2 .G6 | %13
 z4 DD G4 GG | A4 AA B2 B2 B2 | G4 d2 d2 B2 G2 | A2 c3 B A4 Bc | d3 d d2 B4 dd | e3 e e2 c2 .A4 | %19
 G B3 z2 D2 D2 D2 |[M:5/4] E4 D2 G4 |[M:1/4] z2 |[M:6/4] z12 | z12 | z12 | z12 | z12 | z12 | %28
[M:13/8] z13 |[M:6/4] z12 | z12 | z12 | z12 | z12 | z12 | z12 | z12 | z12 |[M:2/4] z4 |] %39
V:2
 z6 z d3 z2 | B2 G2 GB [Bd]2 [_B^c]2 [=Bd]2 | [FA]4 ab [cc']2 [Aa]2 [Dd]2 | %3
 [cc']2 [Aa]2 [Dd]2 [Gg]4 [Bb]2 |[M:2/4] [Gg]4 |[M:4/4] z2[K:bass] G,,2[K:treble] G2 G2 | %6
[M:6/4][K:bass] G,,2[K:treble] G2 G2[K:bass] D,2 ^C2 D2 | %7
 D,,2[K:treble] F2 F2[K:bass] F,,2[K:treble] F2 F2 | %8
 A,,2[K:treble] F2 F2[K:bass] G,,2[K:treble] G2 G2 | %9
 G,,2[K:treble] G2 G2[K:bass] G,,2[K:treble] G2 G2 | %10
 A,,2[K:treble] G2 G2[K:bass] D,,2[K:treble] F2 F2 | %11
 F,,2[K:treble] F2 F2[K:bass] A,,2[K:treble] F2 F2 | D,2 B2 A2 .[B,DG]6 | z6 .B6 | .[Ac]6 z6 | %15
 .B6 z6 | z2 c4 .[Ac]6 | [Bd]3 [Bd] [Bd]2 [GB]4 [Bd][Bd] | [ce]3 [ce] [ce]2 [Ac]2 .[EA]4 | %19
 [DG] [GB]3 z2[K:bass] [F,D]2 [F,CD]2 [F,CD]2 |[M:5/4] [F,CE]4 [F,D]2[K:treble] [G,B,G]4 | %21
[M:1/4] GA |[M:6/4] B4 B2 B2 A2 B2 | [Ac]4 [Ac]2 [FA]4 [FA][GB] | %24
 [Ac]2 [Ac]2 [Ac]2 [GB]2 [Bd]3 [FA] | z6 .[Ac]6 | [Fc]4 [GB][Ac] [Gd]4 [B,DG]2 | %27
 [DGB]4 [DBd][DBd] [DBd]2 [DFA]2 [DGB]2 |[M:13/8] z z z z z2 .[FA]3 z z z2 | %29
[M:6/4] [DAc]2 [DFA]2 D2 .c4 D2 | G6 B4 DD | G4 G2 [CFA]4 [CFA]2 | [DGB]4 [DGB]2 [B,DG]4 [B,Gd]2 | %33
 [B,Gd]2 [DGB]2 [DG]2 [FA]2 [Fc]3 [GB] | [FA]4 [GB][Ac] [Bd]3 [Bd] [Bd]2 | %35
 [DGB]4 [B,Gd][B,Gd] [Ge]3 [Ge] [Ge]2 | [Ec]2 .[CA]4 [B,G] [DB]3 z2 | D2 D2 D2 E4 D2 | %38
[M:2/4] [B,G]4 |] %39
V:3
 z4 Bc .d2 G2 d2 | x12 | x12 | x12 |[M:2/4] x4 |[M:4/4] x2[K:bass] x2[K:treble] x4 | %6
[M:6/4][K:bass] x2[K:treble] x4[K:bass] x6 | x2[K:treble] x4[K:bass] x2[K:treble] x4 | %8
 x2[K:treble] x4[K:bass] x2[K:treble] x4 | x2[K:treble] x4[K:bass] x2[K:treble] x4 | %10
 x2[K:treble] x4[K:bass] x2[K:treble] x4 | x2[K:treble] x4[K:bass] x2[K:treble] x4 | x12 | %13
 z2 [DG]2 [DG]G G2 G2 BB | z2 [CF]2 [CFAc]2 [Bd]2 [DGBd]2 [DGBd]2 | %15
 G2 [DG]2 [DGd]2 d2 [DGBd]2 [DGB]2 | .[Ac]4 z c z2 F2 Bc | x12 | x12 | x6[K:bass] x6 | %20
[M:5/4] x6[K:treble] x4 |[M:1/4] x2 |[M:6/4] x12 | x12 | x12 | [DGB]4 [DGB][DGB] C2- [CA]2 D2 | %26
 x12 | x12 |[M:13/8] [DAc]- [DAc]3 D2 D2- [Dc]3 [DAc][DAc] |[M:6/4] x12 | x12 | x12 | x12 | x12 | %34
 x12 | x12 | x12 | x12 |[M:2/4] x4 |] %39
V:4
 z6 G,,2 [B,D]2 [B,DG]2 | G,,2 [B,D]2 [B,D]2 .[G,,G,]4 [G,,G,]2 | %2
 [D,,D,]4[K:treble] AB[K:bass] D,2 [F,A,C]2 [F,A,C]2 | %3
 [D,,D,]2 [F,A,C]2 [F,A,C]2 [G,,G,]4 [G,,G,]2 |[M:2/4] [G,,G,]4 |[M:4/4] z4 [G,B,]2 [G,B,]2 | %6
[M:6/4] z2 [G,B,]2 [G,B,]2 z2 _B,2 =B,2 | z2 [A,C]2 [A,C]2 z2 [A,C]2 [A,C]2 | %8
 z2 [A,C]2 [A,C]2 z2 [G,B,]2 [G,B,]2 | z2[K:treble] [B,D]2 [B,D]2 z2 [B,D]2 [B,D]2 | %10
 z2 [A,^C]2 [A,C]2 z2 [A,=C]2 [A,C]2 | z2 [A,C]2 [A,C]2 z2 [A,C]2 [A,C]2 | %12
 z2 [DG]2 [CDF]2[K:bass] .G,,6 | z4 B,2 z4[K:treble] [B,D]2 | D,,2 A,2 A,2 G,,2 B,2 B,2 | %15
 G,,2 B,2 B,2 G,,2 B,2 B,2 | D,2[K:treble] .[A,CF]3 B[K:bass] D,,2 [A,C]2[K:treble] GA | %17
 G,3 G, G,2[K:bass] [G,,G,]4 [G,,G,][G,,G,] | [C,G,]3 [C,G,] [C,G,]2 .[C,G,]6 | %19
 [D,G,] [D,G,]3 z2 D,,2 D,,2 D,,2 |[M:5/4] D,,4 D,,2 G,,4 |[M:1/4][K:treble] [G,B,D][G,CD] | %22
[M:6/4] [G,DG]4 [G,DG]2 [G,DG]2 [G,DF]2 [G,DG]2 | [D,D]4 [D,D]2 [D,D]4 [D,D][D,D] | %24
 [D,D]2 [D,D]2 [D,D]2 [D,D]2 [D,D]3 [D,D] | G,4 G,G, z2 F2 [D,F,]2 | %26
 [D,A,]4 [D,D][D,D] [G,B,]4 G,2 | G,4 G,G, G,2 G,2 G,2 |[M:13/8] D,- D,3 D,2 z2 A3 D,D, | %29
[M:6/4] D,2 D,2 D,2 .[D,A,D]4 [D,C]2 | [B,D]6 D4 [G,B,][G,B,] | [G,B,D]4 [G,B,D]2 D,4 D,2 | %32
 G,,4 G,,2 G,,4 G,,2 | G,,2 G,,2 B,,2 [D,D]2 [D,D]3 [D,D] | [D,D]4 [D,G,][D,F,] G,3 G, G,2 | %35
 G,,4 G,,G,, [C,C]3 [C,C] [C,C]2 | .[C,C]6 [G,,D,] [G,,G,]3 z2 | %37
 [D,F,C]2 [D,F,C]2 [D,F,C]2 [D,F,C]4 [D,F,C]2 |[M:2/4] [G,,G,]4 |] %39
V:5
 x12 | x12 | x4[K:treble] x2[K:bass] x6 | x12 |[M:2/4] x4 |[M:4/4] x8 |[M:6/4] x12 | x12 | x12 | %9
 x2[K:treble] x10 | x12 | x12 | x6[K:bass] x6 | G,,2 .B,3 D G,,2[K:treble] [B,D]2 GG | x12 | x12 | %16
 z4[K:treble] [A,C]2[K:bass] z4[K:treble] [A,CF]2 | x6[K:bass] x6 | x12 | x12 |[M:5/4] x10 | %21
[M:1/4][K:treble] x2 |[M:6/4] x12 | x12 | x12 | z6 .D,6 | x12 | x12 | %28
[M:13/8] z z z z z2 D,-D,- D,3 z2 |[M:6/4] x12 | G,12 | x12 | x12 | x12 | x12 | x12 | x12 | x12 | %38
[M:2/4] x4 |] %39
V:6
 x12 | x12 | x12 | x12 |[M:2/4] x4 |[M:4/4] x2[K:bass] x2[K:treble] x4 | %6
[M:6/4][K:bass] x2[K:treble] x4[K:bass] x6 | x2[K:treble] x4[K:bass] x2[K:treble] x4 | %8
 x2[K:treble] x4[K:bass] x2[K:treble] x4 | x2[K:treble] x4[K:bass] x2[K:treble] x4 | %10
 x2[K:treble] x4[K:bass] x2[K:treble] x4 | x2[K:treble] x4[K:bass] x2[K:treble] x4 | x12 | x12 | %14
 x12 | x12 | z4 F2 z6 | x12 | x12 | x6[K:bass] x6 |[M:5/4] x6[K:treble] x4 |[M:1/4] x2 | %22
[M:6/4] x12 | x12 | x12 | x12 | x12 | x12 |[M:13/8] x13 |[M:6/4] x12 | x12 | x12 | x12 | x12 | %34
 x12 | x12 | x12 | x12 |[M:2/4] x4 |] %39

